!!!COM: Igor (Fyodorovich) Stravinsky
!!!OTL: [T394_Str-w37p80h169m1-h172m2]
**kern	**dynam	**kern	**dynam	**kern	**dynam	**kern	**dynam	**kern	**dynam	**kern	**dynam	**kern	**kern	**dynam	**kern	**dynam	**kern	**kern	**kern	**dynam	**kern	**dynam	**kern	**dynam
*grp:A	*grp:A	*grp:A	*grp:A	*grp:A	*grp:A	*grp:A	*grp:A	*grp:A	*grp:A	*grp:A	*grp:A	*grp:A	*grp:A	*grp:A	*grp:A	*grp:A	*grp:B	*grp:B	*grp:A	*grp:A	*grp:B	*grp:B	*grp:A	*grp:A
*part14	*part14	*part13	*part13	*part12	*part12	*part11	*part11	*part10	*part10	*part9	*part9	*part8	*part7	*part7	*part6	*part6	*part5	*part4	*part3	*part3	*part2	*part2	*part1	*part1
*staff14	*staff14	*staff13	*staff13	*staff12	*staff12	*staff11	*staff11	*staff10	*staff10	*staff9	*staff9	*staff8	*staff7	*staff7	*staff6	*staff6	*staff5	*staff4	*staff3	*staff3	*staff2	*staff2	*staff1	*staff1
*I"Contrabass	*I"Contrabass	*I"Violoncello	*I"Violoncello	*I"Viola	*I"Viola	*I"Violin II	*I"Violin II	*I"Violin I	*I"Violin I	*I"Timpani	*I"Timpani	*I"Trombone 3 Tuba	*I"Trombone 1. 2.	*I"Trombone 1. 2.	*I"Trumpet in C 1	*I"Trumpet in C 1	*I"Horn in F 3. 4.	*I"Horn in F 1. 2.	*I"Bassoon I. II.	*I"Bassoon I. II.	*I"Clarinet in Bb I. II.	*I"Clarinet in Bb I. II.	*I"Flute	*I"Flute
*I'Cb.	*	*I'Vc.	*	*I'Vla.	*	*I'Vln. II	*	*I'Vln. I	*	*I'Timp.	*	*I'Tbn. III. Tuba	*I'Tbn. I. II.	*	*I'C Tpt. I.	*	*I'Hn. III. IV.	*I'Hn. I. II.	*I'Bsn.	*	*I'Cl.	*	*I'Fl.	*
!!pagebreak:original
*clefF4	*	*clefF4	*	*clefC3	*	*clefG2	*	*clefG2	*	*clefF4	*	*clefF4	*clefF4	*	*clefG2	*	*clefG2	*clefG2	*clefF4	*	*clefG2	*	*clefG2	*
*ITrd7c12	*	*	*	*	*	*	*	*	*	*	*	*	*	*	*	*	*ITrd0c0	*ITrd0c0	*	*	*ITrd0c0	*	*	*
*k[]	*	*k[]	*	*k[]	*	*k[]	*	*k[]	*	*k[]	*	*k[]	*k[]	*	*k[]	*	*k[]	*k[]	*k[]	*	*k[]	*	*k[]	*
*	*	*	*	*	*	*	*	*	*	*	*	*	*	*	*	*	*	*	*	*	*	*	*	*
*M4/4	*	*M4/4	*	*M4/4	*	*M4/4	*	*M4/4	*	*M4/4	*	*M4/4	*M4/4	*	*M4/4	*	*M4/4	*M4/4	*M4/4	*	*M4/4	*	*M4/4	*
!!LO:REH:t=169
=1	=1	=1	=1	=1	=1	=1	=1	=1	=1	=1	=1	=1	=1	=1	=1	=1	=1	=1	=1	=1	=1	=1	=1	=1
*	*	*	*	*	*	*	*	*	*	*	*	*	*	*	*	*	*	*	*	*	*^	*	*	*
!	!	!	!LO:DY:t={ %s	!	!	!	!	!	!	!	!	!	!	!	!	!	!	!	!	!LO:DY:t=%s stacc. e marc.	!LO:TX:a:i:t=ben marc.	!	!	!	!
8FF'	sf	8C'	sf	8G-X'	sf	8A-X'	sf	8A-X'	sf	1r	.	1r	1r	.	1r	.	1r	1r	8C'L 8G-X	f	4A-X	4A-	f	1r	.
4.r	.	4.r	.	4.r	.	4.r	.	4.r	.	.	.	.	.	.	.	.	.	.	8BB-X' 8F	.	.	.	.	.	.
.	.	.	.	.	.	.	.	.	.	.	.	.	.	.	.	.	.	.	8AA-X' 8E-X	.	4B-	4B-	.	.	.
.	.	.	.	.	.	.	.	.	.	.	.	.	.	.	.	.	.	.	8GG-X'J 8D-X	.	.	.	.	.	.
2r	.	2r	.	2r	.	2r	.	2r	.	.	.	.	.	.	.	.	.	.	8FF'L 8C	.	8A-L	8A-L	.	.	.
.	.	.	.	.	.	.	.	.	.	.	.	.	.	.	.	.	.	.	8C' 8G-	.	8B-J	8B-J	.	.	.
.	.	.	.	.	.	.	.	.	.	.	.	.	.	.	.	.	.	.	8BB-' 8F	.	[4c	8c	.	.	.
.	.	.	.	.	.	.	.	.	.	.	.	.	.	.	.	.	.	.	8AA-'J 8E-	.	.	8r	.	.	.
=2	=2	=2	=2	=2	=2	=2	=2	=2	=2	=2	=2	=2	=2	=2	=2	=2	=2	=2	=2	=2	=2	=2	=2	=2	=2
4r	.	4r	.	4r	.	4r	.	1r	.	1r	.	1r	1r	.	1r	.	1r	1r	8GG-X'L 8D-X	.	4c]	4r	.	1r	.
.	.	.	.	.	.	.	.	.	.	.	.	.	.	.	.	.	.	.	8FF' 8C	.	.	.	.	.	.
8FF'	.	8C'	.	8G-X'	.	8A-X'	.	.	.	.	.	.	.	.	.	.	.	.	8C' 8G-X	.	4A-X	4A-	.	.	.
8r	.	8r	.	8r	.	8r	.	.	.	.	.	.	.	.	.	.	.	.	8BB-X'J 8F	.	.	.	.	.	.
4r	.	4r	.	4r	.	4r	.	.	.	.	.	.	.	.	.	.	.	.	8AA-X'L 8E-X	.	4B-	4B-	.	.	.
.	.	.	.	.	.	.	.	.	.	.	.	.	.	.	.	.	.	.	8GG-' 8D-	.	.	.	.	.	.
8FF'	.	8C'	.	8G-'	.	8A-'	.	.	.	.	.	.	.	.	.	.	.	.	8FF' 8C	.	8A-L	8A-L	.	.	.
8r	.	8r	.	8r	.	8r	.	.	.	.	.	.	.	.	.	.	.	.	8C'J 8G-	.	8B-J	8B-J	.	.	.
*	*	*	*	*	*	*	*	*	*	*	*	*	*	*	*	*	*	*	*	*	*v	*v	*	*	*
=3	=3	=3	=3	=3	=3	=3	=3	=3	=3	=3	=3	=3	=3	=3	=3	=3	=3	=3	=3	=3	=3	=3	=3	=3
!	!	!	!	!	!	!	!	!	!	!	!	!	!	!	!	!	!	!	!	!	!LO:TX:a:t=a 2	!	!	!
1r	.	1r	.	1r	.	1r	.	1r	.	1r	.	1r	1r	.	1r	.	1r	1r	8BB-X'L 8F	.	4c	.	1r	.
.	.	.	.	.	.	.	.	.	.	.	.	.	.	.	.	.	.	.	8AA-X' 8E-X	.	.	.	.	.
.	.	.	.	.	.	.	.	.	.	.	.	.	.	.	.	.	.	.	8GG-X' 8D-X	.	8A-XL	.	.	.
.	.	.	.	.	.	.	.	.	.	.	.	.	.	.	.	.	.	.	8FF'J 8C	.	8B-J	.	.	.
.	.	.	.	.	.	.	.	.	.	.	.	.	.	.	.	.	.	.	8C'L 8G-X	.	4c	.	.	.
.	.	.	.	.	.	.	.	.	.	.	.	.	.	.	.	.	.	.	8BB-' 8F	.	.	.	.	.
.	.	.	.	.	.	.	.	.	.	.	.	.	.	.	.	.	.	.	8AA-' 8E-	.	4d-X	.	.	.
.	.	.	.	.	.	.	.	.	.	.	.	.	.	.	.	.	.	.	8GG-'J 8D-	.	.	.	.	.
!!pagebreak:original
!!LO:REH:t=170
=4	=4	=4	=4	=4	=4	=4	=4	=4	=4	=4	=4	=4	=4	=4	=4	=4	=4	=4	=4	=4	=4	=4	=4	=4
*	*	*	*	*	*	*	*	*	*	*	*	*	*	*	*	*	*	*	*	*	*^	*	*	*
8FF'	.	8C'	.	8G-X'	.	8A-X'	.	1r	.	1r	.	1r	1r	.	1r	.	1r	1r	8FF'L 8C	.	8A-XL	2ryy	.	1r	.
4.r	.	4.r	.	4.r	.	4.r	.	.	.	.	.	.	.	.	.	.	.	.	8GG-X' 8D-X	.	8B-	.	.	.	.
.	.	.	.	.	.	.	.	.	.	.	.	.	.	.	.	.	.	.	8AA-X' 8E-X	.	8c	.	.	.	.
.	.	.	.	.	.	.	.	.	.	.	.	.	.	.	.	.	.	.	8FF'J 8C	.	8d-XJ	.	.	.	.
2r	.	2r	.	2r	.	2r	.	.	.	.	.	.	.	.	.	.	.	.	8C'L 8G-X	.	8cL	4ryy	.	.	.
.	.	.	.	.	.	.	.	.	.	.	.	.	.	.	.	.	.	.	8BB' 8F	.	8A-J	.	.	.	.
.	.	.	.	.	.	.	.	.	.	.	.	.	.	.	.	.	.	.	8AA-' 8E-	.	[4B-	8B-	.	.	.
.	.	.	.	.	.	.	.	.	.	.	.	.	.	.	.	.	.	.	8GG-'J 8D-	.	.	8r	.	.	.
=5	=5	=5	=5	=5	=5	=5	=5	=5	=5	=5	=5	=5	=5	=5	=5	=5	=5	=5	=5	=5	=5	=5	=5	=5	=5
2r	.	2r	.	2r	.	2r	.	1r	.	1r	.	1r	1r	.	1r	.	1r	1r	8C'L 8G-X	.	8B-L]	8r	.	1r	.
.	.	.	.	.	.	.	.	.	.	.	.	.	.	.	.	.	.	.	8BB-X' 8F	.	8c	8cL	.	.	.
.	.	.	.	.	.	.	.	.	.	.	.	.	.	.	.	.	.	.	8AA-X' 8E-X	.	8d-X	8d-	.	.	.
.	.	.	.	.	.	.	.	.	.	.	.	.	.	.	.	.	.	.	8GG-X'J 8D-X	.	8cJ	8cJ	.	.	.
!	!	!	!	!	!	!	!	!	!	!	!	!	!	!	!	!	!	!	!	!	!LO:TX:a:t=a 2	!	!	!	!
8FF'	.	8C'	.	8G-X'	.	8A-X'	.	.	.	.	.	.	.	.	.	.	.	.	8FF'L 8C	.	8A-XL	2ryy	.	.	.
8r	.	8r	.	8r	.	8r	.	.	.	.	.	.	.	.	.	.	.	.	8C' 8G-	.	8B-	.	.	.	.
4r	.	4r	.	4r	.	4r	.	.	.	.	.	.	.	.	.	.	.	.	8BB-' 8F	.	8c	.	.	.	.
.	.	.	.	.	.	.	.	.	.	.	.	.	.	.	.	.	.	.	8AA-'J 8E-	.	8d-J	.	.	.	.
*	*	*	*	*	*	*	*	*	*	*	*	*	*	*	*	*	*	*	*	*	*v	*v	*	*	*
=6	=6	=6	=6	=6	=6	=6	=6	=6	=6	=6	=6	=6	=6	=6	=6	=6	=6	=6	=6	=6	=6	=6	=6	=6
8r	.	8r	.	8r	.	8r	.	1r	.	1r	.	1r	1r	.	1r	.	1r	1r	8GG-X'L 8D-X	.	8cL	.	1r	.
8FF'	.	8C'	.	8G-X'	.	8A-X'	.	.	.	.	.	.	.	.	.	.	.	.	8FF' 8C	.	8A-X	.	.	.
4r	.	4r	.	4r	.	4r	.	.	.	.	.	.	.	.	.	.	.	.	8GG-' 8D-	.	8B-	.	.	.
.	.	.	.	.	.	.	.	.	.	.	.	.	.	.	.	.	.	.	8AA-X'J 8E-X	.	8cJ	.	.	.
2r	.	2r	.	2r	.	2r	.	.	.	.	.	.	.	.	.	.	.	.	8FF'L 8C	.	8dL	.	.	.
.	.	.	.	.	.	.	.	.	.	.	.	.	.	.	.	.	.	.	8GG-' 8E-	.	8e-	.	.	.
.	.	.	.	.	.	.	.	.	.	.	.	.	.	.	.	.	.	.	8AA-' 8E-	.	8d-X	.	.	.
.	.	.	.	.	.	.	.	.	.	.	.	.	.	.	.	.	.	.	8BB-X'J 8G-X	.	8cJ	.	.	.
!!pagebreak:original
=7	=7	=7	=7	=7	=7	=7	=7	=7	=7	=7	=7	=7	=7	=7	=7	=7	=7	=7	=7	=7	=7	=7	=7	=7
!	!	!	!	!	!	!	!	!	!	!	!	!	!	!	!	!	!	!	!	!	!LO:TX:a:t=a 2	!	!	!
8FF	.	8CL	<	8G-X	.	8A-XL	<	2r	.	1r	.	1r	1r	.	1r	.	1r	1r	8C'L 8G-X	<	8A-XL	<	1r	.
4.r	.	8BB-X	.	4.r	.	8B-X	.	.	.	.	.	.	.	.	.	.	.	.	8BB-X'J 8A-X	.	8B-	.	.	.
.	.	8C	.	.	.	8c	.	.	.	.	.	.	.	.	.	.	.	.	8C'L 8A-	.	8c	.	.	.
.	.	8D-XJ	.	.	.	8d-XJ	.	.	.	.	.	.	.	.	.	.	.	.	8D-X'J 8c	.	8d-XJ	.	.	.
4r	.	8E-XL	.	4r	.	8e-XL	.	4r	.	.	.	.	.	.	.	.	.	.	8E-X'L 8c	.	8e-L	.	.	.
.	.	8FJ	.	.	.	8fJ	.	.	.	.	.	.	.	.	.	.	.	.	8F'J 8e-X	.	8fJ	.	.	.
4BB-X'	.	4Gn'	[	4D-X' 4Gn	.	4gn'	[	4c'	f	.	.	.	.	.	.	.	.	.	4Gn' 4d-X	[	4g'	[	.	.
!!LO:REH:t=171
=8	=8	=8	=8	=8	=8	=8	=8	=8	=8	=8	=8	=8	=8	=8	=8	=8	=8	=8	=8	=8	=8	=8	=8	=8
*	*	*	*	*	*	*	*	*	*	*	*	*	*	*	*	*	*^	*^	*	*	*	*	*	*
!	!	!	!	!	!	!	!	!	!	!	!	!	!	!	!	!	!	!	!LO:TX:b:i:t={ marcatissimo	!	!	!	!	!	!	!
4r	.	4r	.	4r	.	4r	.	4r	.	4r	.	4r	4r	.	4r	.	4r	4ryy	4r	4ryy	1r	.	4r	.	4r	.
*	*	*	*	*	*	*tremolo	*	*	*	*	*	*	*	*	*	*	*	*	*	*	*	*	*	*	*	*
*	*	*	*	*	*	*	*	*tremolo	*	*	*	*	*	*	*	*	*	*	*	*	*	*	*	*	*	*
!	!	!	!	!	!	!	!	!LO:TX:b:i:t={ a punta d'arco	!	!	!	!	!	!LO:DY:t={ %s	!	!	!	!	!	!	!	!	!	!	!LO:TX:a:t=a 2	!
8BBB-X'	.	8FL	.	8c-XL	.	16d-XLL	.	16dd-XLL	.	8BB-X'	sf	8BBB-X' 8BB-X	8F' 8c-X	sf	8d-X'	sf	4d-X^	4d-'	4d-X^	4d-'	.	.	(8d-XL	f	(8aa-XL	f
.	.	.	.	.	.	16d-X	.	16dd-X	.	.	.	.	.	.	.	.	.	.	.	.	.	.	.	.	.	.
8r	.	8E-XJ	.	8B-XJ	.	16e-X	.	16ee-X	.	8r	.	8r	8r	.	8r	.	.	.	.	.	.	.	8e-J	.	8bb-XJ	.
.	.	.	.	.	.	16e-XJJ	.	16ee-XJJ	.	.	.	.	.	.	.	.	.	.	.	.	.	.	.	.	.	.
2r	.	8D-XL	.	8A-XL	.	16fLL	.	16ffLL	.	2r	.	2r	2r	.	2r	.	4e-X^	4e-'	4e-X^	4e-'	.	.	8fL	.	8ccc-XL	.
.	.	.	.	.	.	16f	.	16ff	.	.	.	.	.	.	.	.	.	.	.	.	.	.	.	.	.	.
.	.	8C-X	.	8G-X	.	16g-X	.	16gg-X	.	.	.	.	.	.	.	.	.	.	.	.	.	.	8g-X	.	8ddd-X	.
.	.	.	.	.	.	16g-X	.	16gg-X	.	.	.	.	.	.	.	.	.	.	.	.	.	.	.	.	.	.
.	.	8BB-X	.	8F	.	16a-X	.	16aa-X	.	.	.	.	.	.	.	.	8d-^L	8d-'L	8d-^L	8d-'L	.	.	8a-X)	.	8eee-X)	.
.	.	.	.	.	.	16a-X	.	16aa-X	.	.	.	.	.	.	.	.	.	.	.	.	.	.	.	.	.	.
.	.	8FJ	.	8c-J	.	16d-	.	16dd-	.	.	.	.	.	.	.	.	8e-^J	8e-'J	8e-^J	8e-'J	.	.	(8d-J	.	(8aa-J	.
.	.	.	.	.	.	16d-JJ	.	16dd-JJ	.	.	.	.	.	.	.	.	.	.	.	.	.	.	.	.	.	.
=9	=9	=9	=9	=9	=9	=9	=9	=9	=9	=9	=9	=9	=9	=9	=9	=9	=9	=9	=9	=9	=9	=9	=9	=9	=9	=9
!	!	!	!	!	!	!	!	!LO:TX:b:i:t={ simile	!	!	!	!	!	!	!	!	!	!	!	!	!	!	!	!	!	!
2r	.	8E-XL	.	8B-XL	.	16e-XLL	.	16ee-XLL	.	2r	.	2r	2r	.	2r	.	2f^	4f'	[2f^	4f'	1r	.	8e-L	.	8bb-XL	.
.	.	.	.	.	.	16e-X	.	16ee-X	.	.	.	.	.	.	.	.	.	.	.	.	.	.	.	.	.	.
.	.	8D-X	.	8A-X	.	16f	.	16ff	.	.	.	.	.	.	.	.	.	.	.	.	.	.	8f	.	8ccc-X	.
.	.	.	.	.	.	16f	.	16ff	.	.	.	.	.	.	.	.	.	.	.	.	.	.	.	.	.	.
.	.	8C-X	.	8G-X	.	16g-X	.	16gg-X	.	.	.	.	.	.	.	.	.	4r	.	4r	.	.	8g-X	.	8ddd-X	.
.	.	.	.	.	.	16g-X	.	16gg-X	.	.	.	.	.	.	.	.	.	.	.	.	.	.	.	.	.	.
.	.	8BB-XJ	.	8FJ	.	16a-X	.	16aa-X	.	.	.	.	.	.	.	.	.	.	.	.	.	.	8a-XJ	.	8eee-XJ	.
.	.	.	.	.	.	16a-XJJ	.	16aa-XJJ	.	.	.	.	.	.	.	.	.	.	.	.	.	.	.	.	.	.
4r	.	8FL	.	8c-XL	.	16b-XLL	.	16bb-XLL	.	4r	.	4r	4r	.	4r	.	4r	4r	4f]	4r	.	.	8b-L)	.	8fffL)	.
.	.	.	.	.	.	16b-X	.	16bb-X	.	.	.	.	.	.	.	.	.	.	.	.	.	.	.	.	.	.
.	.	8E-	.	8B-	.	16c-X	.	16cc-X	.	.	.	.	.	.	.	.	.	.	.	.	.	.	(8c-X	.	(8gg-X	.
.	.	.	.	.	.	16c-X	.	16cc-X	.	.	.	.	.	.	.	.	.	.	.	.	.	.	.	.	.	.
8BBB-X'	.	8D-	.	8A-	.	16d-X	.	16dd-X	.	8BB-X'	.	8BBB-X' 8BB-X	8F' 8c-X	.	8d-X'	.	4d-X^	4d-'	4d-X^	4d-'	.	.	8d-X	.	8aa-X	.
.	.	.	.	.	.	16d-X	.	16dd-X	.	.	.	.	.	.	.	.	.	.	.	.	.	.	.	.	.	.
8r	.	8C-J	.	8G-J	.	16e-	.	16ee-	.	8r	.	8r	8r	.	8r	.	.	.	.	.	.	.	8e-J	.	8bb-J	.
.	.	.	.	.	.	16e-JJ	.	16ee-JJ	.	.	.	.	.	.	.	.	.	.	.	.	.	.	.	.	.	.
!!pagebreak:original
=10	=10	=10	=10	=10	=10	=10	=10	=10	=10	=10	=10	=10	=10	=10	=10	=10	=10	=10	=10	=10	=10	=10	=10	=10	=10	=10
2r	.	8BB-XL	.	8FL	.	16fLL	.	16ffLL	.	2r	.	2r	2r	.	2r	.	4e-X^	4e-'	4e-X^	4e-'	1r	.	8fL)	.	8ccc-XL)	.
.	.	.	.	.	.	16f	.	16ff	.	.	.	.	.	.	.	.	.	.	.	.	.	.	.	.	.	.
.	.	8F	.	8c-X	.	16d-X	.	16dd-X	.	.	.	.	.	.	.	.	.	.	.	.	.	.	(8d-X	.	(8aa-X	.
.	.	.	.	.	.	16d-X	.	16dd-X	.	.	.	.	.	.	.	.	.	.	.	.	.	.	.	.	.	.
.	.	8E-X	.	8B-X	.	16e-X	.	16ee-X	.	.	.	.	.	.	.	.	8d-X^L	8d-'L	8d-X^L	8d-'L	.	.	8e-	.	8bb-X	.
.	.	.	.	.	.	16e-X	.	16ee-X	.	.	.	.	.	.	.	.	.	.	.	.	.	.	.	.	.	.
.	.	8D-XJ	.	8A-XJ	.	16f	.	16ff	.	.	.	.	.	.	.	.	8e-^J	8e-'J	8e-^J	8e-'J	.	.	8fJ	.	8ccc-J	.
.	.	.	.	.	.	16fJJ	.	16ffJJ	.	.	.	.	.	.	.	.	.	.	.	.	.	.	.	.	.	.
4r	.	8C-XL	.	8G-XL	.	16g-XLL	.	16gg-XLL	.	4r	.	4r	4r	.	4r	.	4f^	4f'	4f^	4f'	.	.	8g-XL	.	8ddd-XL	.
.	.	.	.	.	.	16g-X	.	16gg-X	.	.	.	.	.	.	.	.	.	.	.	.	.	.	.	.	.	.
.	.	8BB-	.	8F	.	16a-X	.	16aa-X	.	.	.	.	.	.	.	.	.	.	.	.	.	.	8a-X	.	8eee-X	.
.	.	.	.	.	.	16a-X	.	16aa-X	.	.	.	.	.	.	.	.	.	.	.	.	.	.	.	.	.	.
8BBB-X'	.	8F	.	8c-	.	16b-X	.	16bb-X	.	8BB-X'	.	8BBB-X' 8BB-X	8F' 8c-X	.	8d-X'	.	8d-^L	8d-'L	8d-^L	8d-'L	.	.	8b-	.	8fff-X	.
.	.	.	.	.	.	16b-X	.	16bb-X	.	.	.	.	.	.	.	.	.	.	.	.	.	.	.	.	.	.
8r	.	8E-J	.	8B-J	.	16cc-X	.	16ccc-X	.	8r	.	8r	8r	.	8r	.	8e-^J	8e-'J	8e-^J	8e-'J	.	.	8cc-XJ)	.	8ggg-XJ)	.
.	.	.	.	.	.	16cc-XJJ	.	16ccc-XJJ	.	.	.	.	.	.	.	.	.	.	.	.	.	.	.	.	.	.
!!LO:REH:t=172
=11	=11	=11	=11	=11	=11	=11	=11	=11	=11	=11	=11	=11	=11	=11	=11	=11	=11	=11	=11	=11	=11	=11	=11	=11	=11	=11
1r	.	8D-XL	.	8A-XL	.	16d-XLL	.	16dd-XLL	.	1r	.	1r	1r	.	1r	.	4f^	4f'	4f^	4f'	1r	.	(8d-XL	.	(8aa-XL	.
.	.	.	.	.	.	16d-X	.	16dd-X	.	.	.	.	.	.	.	.	.	.	.	.	.	.	.	.	.	.
.	.	8C-X	.	8G-X	.	16e-X	.	16ee-X	.	.	.	.	.	.	.	.	.	.	.	.	.	.	8e-	.	8bb-X	.
.	.	.	.	.	.	16e-X	.	16ee-X	.	.	.	.	.	.	.	.	.	.	.	.	.	.	.	.	.	.
.	.	8BB-X	.	8F	.	16f	.	16ff	.	.	.	.	.	.	.	.	[4g-X^	4g-'	[4g-X^	4g-'	.	.	8f	.	8ccc-X	.
.	.	.	.	.	.	16f	.	16ff	.	.	.	.	.	.	.	.	.	.	.	.	.	.	.	.	.	.
.	.	8FJ	.	8c-XJ	.	16g-X	.	16gg-X	.	.	.	.	.	.	.	.	.	.	.	.	.	.	8g-XJ	.	8ddd-XJ	.
.	.	.	.	.	.	16g-XJJ	.	16gg-XJJ	.	.	.	.	.	.	.	.	.	.	.	.	.	.	.	.	.	.
.	.	8E-XL	.	8B-XL	.	16a-XLL	.	16aa-XLL	.	.	.	.	.	.	.	.	4g-]	4r	4g-]	4r	.	.	8a-XL	.	8eee-XL	.
.	.	.	.	.	.	16a-X	.	16aa-X	.	.	.	.	.	.	.	.	.	.	.	.	.	.	.	.	.	.
.	.	8D-	.	8A-	.	16b-X	.	16bb-X	.	.	.	.	.	.	.	.	.	.	.	.	.	.	8b-	.	8fff	.
.	.	.	.	.	.	16b-X	.	16bb-X	.	.	.	.	.	.	.	.	.	.	.	.	.	.	.	.	.	.
.	.	8C-	.	8G-	.	16cc-X	.	16ccc-X	.	.	.	.	.	.	.	.	[4f^	4f'	[4f^	4f'	.	.	8cc-X)	.	8ggg-X)	.
.	.	.	.	.	.	16cc-X	.	16ccc-X	.	.	.	.	.	.	.	.	.	.	.	.	.	.	.	.	.	.
.	.	8BB-J	.	8FJ	.	16d-	.	16dd-	.	.	.	.	.	.	.	.	.	.	.	.	.	.	(8d-J	.	(8aa-J	.
.	.	.	.	.	.	16d-JJ	.	16dd-JJ	.	.	.	.	.	.	.	.	.	.	.	.	.	.	.	.	.	.
=12	=12	=12	=12	=12	=12	=12	=12	=12	=12	=12	=12	=12	=12	=12	=12	=12	=12	=12	=12	=12	=12	=12	=12	=12	=12	=12
4r	.	8FL	.	8c-XL	.	16e-XLL	.	16ee-XLL	.	4r	.	4r	4r	.	4r	.	4f]	4r	4f]	4r	1r	.	8e-L	.	8bb-XL	.
.	.	.	.	.	.	16e-X	.	16ee-X	.	.	.	.	.	.	.	.	.	.	.	.	.	.	.	.	.	.
.	.	8E-X	.	8B-X	.	16f	.	16ff	.	.	.	.	.	.	.	.	.	.	.	.	.	.	8f)	.	8ccc-X)	.
.	.	.	.	.	.	16f	.	16ff	.	.	.	.	.	.	.	.	.	.	.	.	.	.	.	.	.	.
8BBB-X'	.	8D-X	.	8A-X	.	16d-X	.	16dd-X	.	8BB-X'	.	8BBB-X' 8BB-X	8F' 8c-X	.	8d-X'	.	8d-X^L	8d-'L	8d-X^L	8d-'L	.	.	(8d-X	.	(8aa-X	.
.	.	.	.	.	.	16d-X	.	16dd-X	.	.	.	.	.	.	.	.	.	.	.	.	.	.	.	.	.	.
8r	.	8C-XJ	.	8G-XJ	.	16e-	.	16ee-	.	8r	.	8r	8r	.	8r	.	8e-X^J	8e-'J	8e-X^J	8e-'J	.	.	8e-J	.	8bb-J	.
.	.	.	.	.	.	16e-JJ	.	16ee-JJ	.	.	.	.	.	.	.	.	.	.	.	.	.	.	.	.	.	.
2r	.	8BB-XL	.	8FL	.	16fLL	.	16ffLL	.	2r	.	2r	2r	.	2r	.	4f^	4f'	4f^	4f'	.	.	8fL	.	8ccc-L	.
.	.	.	.	.	.	16f	.	16ff	.	.	.	.	.	.	.	.	.	.	.	.	.	.	.	.	.	.
.	.	8F	.	8c-	.	16g-X	.	16gg-X	.	.	.	.	.	.	.	.	.	.	.	.	.	.	8g-X	.	8ddd-X	.
.	.	.	.	.	.	16g-X	.	16gg-X	.	.	.	.	.	.	.	.	.	.	.	.	.	.	.	.	.	.
.	.	8E-	.	8B-	.	16a-X	.	16aa-X	.	.	.	.	.	.	.	.	[4g-X^	4g-'	[4g-X^	4g-'	.	.	8a-X	.	8eee-X	.
.	.	.	.	.	.	16a-X	.	16aa-X	.	.	.	.	.	.	.	.	.	.	.	.	.	.	.	.	.	.
.	.	8D-J	.	8A-J	.	16b-X	.	16bb-X	.	.	.	.	.	.	.	.	.	.	.	.	.	.	8b-J)	.	8fffJ)	.
.	.	.	.	.	.	16b-XJJ	.	16bb-XJJ	.	.	.	.	.	.	.	.	.	.	.	.	.	.	.	.	.	.
*	*	*	*	*	*	*	*	*Xtremolo	*	*	*	*	*	*	*	*	*	*	*	*	*	*	*	*	*	*
*	*	*	*	*	*	*Xtremolo	*	*	*	*	*	*	*	*	*	*	*	*	*	*	*	*	*	*	*	*
*	*	*	*	*	*	*	*	*	*	*	*	*	*	*	*	*	*v	*v	*	*	*	*	*	*	*	*
*	*	*	*	*	*	*	*	*	*	*	*	*	*	*	*	*	*	*v	*v	*	*	*	*	*	*
=	=	=	=	=	=	=	=	=	=	=	=	=	=	=	=	=	=	=	=	=	=	=	=	=
*-	*-	*-	*-	*-	*-	*-	*-	*-	*-	*-	*-	*-	*-	*-	*-	*-	*-	*-	*-	*-	*-	*-	*-	*-
!!!system-decoration: [(s1,s2,s3)][([(s4,s5)]s6[(s7,s8)])][(s9)][(s10,s11,s12,s13,s14)]
